docs/images/Group 71.svg

<svg width="13" height="9" viewBox="0 0 13 9" fill="none" xmlns="http://www.w3.org/2000/svg">
<g opacity="0.8">
<path fill-rule="evenodd" clip-rule="evenodd" d="M0.577721 1.12292C0.892288 0.749392 1.4023 0.749391 1.71687 1.12292L6.34181 6.61475L10.9667 1.12299C11.2813 0.749459 11.7913 0.74946 12.1058 1.12299C12.4204 1.49652 12.4204 2.10212 12.1058 2.47565L6.97969 8.56263C6.80493 8.77016 6.56983 8.86238 6.34145 8.83932C6.11327 8.86214 5.87847 8.76989 5.70387 8.56257L0.577722 2.47558C0.263155 2.10206 0.263155 1.49645 0.577721 1.12292Z" fill="white"/>
</g>
</svg>

<svg width="13" height="9" viewBox="0 0 13 9" fill="none" xmlns="http://www.w3.org/2000/svg"><path fill-rule="evenodd" clip-rule="evenodd" d="M.578 1.123c.314-.374.824-.374 1.139 0l4.625 5.492 4.625-5.492c.314-.374.824-.374 1.139 0 .314.374.314.98 0 1.353L6.98 8.563a.735.735 0 01-.639.276.735.735 0 01-.637-.276L.578 2.476a1.087 1.087 0 010-1.353z" fill="#fff" opacity=".8"/></svg>
